src/assets/images/bank.svg

<svg width="61" height="64" viewBox="0 0 61 64" fill="none" xmlns="http://www.w3.org/2000/svg">
<path fill-rule="evenodd" clip-rule="evenodd" d="M32.2226 0.499409C31.6496 0.172138 31.0012 0 30.3414 0C29.6816 0 29.0332 0.172138 28.4602 0.499409L1.91151 15.6701C1.18586 16.0852 0.617702 16.7285 0.295375 17.4999C-0.0269519 18.2712 -0.085386 19.1275 0.129159 19.9355C0.343703 20.7435 0.819204 21.458 1.48173 21.9678C2.14425 22.4777 2.95667 22.7544 3.79267 22.7548V56.4147C2.78679 56.4147 1.82211 56.8142 1.11085 57.5255C0.399584 58.2368 0 59.2015 0 60.2073C0 61.2132 0.399584 62.1779 1.11085 62.8892C1.82211 63.6004 2.78679 64 3.79267 64H56.8901C57.896 64 58.8607 63.6004 59.5719 62.8892C60.2832 62.1779 60.6828 61.2132 60.6828 60.2073C60.6828 59.2015 60.2832 58.2368 59.5719 57.5255C58.8607 56.8142 57.896 56.4147 56.8901 56.4147V22.7548C57.7261 22.7544 58.5385 22.4777 59.2011 21.9678C59.8636 21.458 60.3391 20.7435 60.5536 19.9355C60.7682 19.1275 60.7097 18.2712 60.3874 17.4999C60.0651 16.7285 59.4969 16.0852 58.7713 15.6701L32.2226 0.499409ZM15.1707 26.5475C14.1648 26.5475 13.2001 26.9471 12.4889 27.6583C11.7776 28.3696 11.378 29.3343 11.378 30.3402V48.8293C11.378 49.8352 11.7776 50.7999 12.4889 51.5111C13.2001 52.2224 14.1648 52.622 15.1707 52.622C16.1766 52.622 17.1413 52.2224 17.8525 51.5111C18.5638 50.7999 18.9634 49.8352 18.9634 48.8293V30.3402C18.9634 29.3343 18.5638 28.3696 17.8525 27.6583C17.1413 26.9471 16.1766 26.5475 15.1707 26.5475ZM26.5487 30.3402C26.5487 29.3343 26.9483 28.3696 27.6596 27.6583C28.3708 26.9471 29.3355 26.5475 30.3414 26.5475C31.3473 26.5475 32.312 26.9471 33.0232 27.6583C33.7345 28.3696 34.1341 29.3343 34.1341 30.3402V48.8293C34.1341 49.8352 33.7345 50.7999 33.0232 51.5111C32.312 52.2224 31.3473 52.622 30.3414 52.622C29.3355 52.622 28.3708 52.2224 27.6596 51.5111C26.9483 50.7999 26.5487 49.8352 26.5487 48.8293V30.3402ZM45.5121 26.5475C44.5062 26.5475 43.5415 26.9471 42.8303 27.6583C42.119 28.3696 41.7194 29.3343 41.7194 30.3402V48.8293C41.7194 49.8352 42.119 50.7999 42.8303 51.5111C43.5415 52.2224 44.5062 52.622 45.5121 52.622C46.518 52.622 47.4826 52.2224 48.1939 51.5111C48.9052 50.7999 49.3048 49.8352 49.3048 48.8293V30.3402C49.3048 29.3343 48.9052 28.3696 48.1939 27.6583C47.4826 26.9471 46.518 26.5475 45.5121 26.5475Z" fill="#4D90F1"/>
</svg>

<?xml version="1.0" encoding="utf-8"?>
<!-- Generator: Adobe Illustrator 27.6.1, SVG Export Plug-In . SVG Version: 6.00 Build 0)  -->
<svg version="1.1" id="Layer_1" xmlns="http://www.w3.org/2000/svg" xmlns:xlink="http://www.w3.org/1999/xlink" x="0px" y="0px"
	 viewBox="0 0 61 64" style="enable-background:new 0 0 61 64;" xml:space="preserve">
<style type="text/css">
	.st0{fill-rule:evenodd;clip-rule:evenodd;fill:#2D0E58;}
</style>
<path class="st0" d="M32.2,0.5C31.6,0.2,31,0,30.3,0S29,0.2,28.5,0.5L1.9,15.7c-0.7,0.4-1.3,1.1-1.6,1.8c-0.3,0.8-0.4,1.6-0.2,2.4
	c0.2,0.8,0.7,1.5,1.4,2c0.7,0.5,1.5,0.8,2.3,0.8v33.7c-1,0-2,0.4-2.7,1.1C0.4,58.2,0,59.2,0,60.2c0,1,0.4,2,1.1,2.7
	C1.8,63.6,2.8,64,3.8,64h53.1c1,0,2-0.4,2.7-1.1c0.7-0.7,1.1-1.7,1.1-2.7c0-1-0.4-2-1.1-2.7c-0.7-0.7-1.7-1.1-2.7-1.1V22.8
	c0.8,0,1.6-0.3,2.3-0.8c0.7-0.5,1.1-1.2,1.4-2c0.2-0.8,0.2-1.7-0.2-2.4c-0.3-0.8-0.9-1.4-1.6-1.8L32.2,0.5z M15.2,26.5
	c-1,0-2,0.4-2.7,1.1c-0.7,0.7-1.1,1.7-1.1,2.7v18.5c0,1,0.4,2,1.1,2.7c0.7,0.7,1.7,1.1,2.7,1.1s2-0.4,2.7-1.1
	c0.7-0.7,1.1-1.7,1.1-2.7V30.3c0-1-0.4-2-1.1-2.7C17.1,26.9,16.2,26.5,15.2,26.5z M26.5,30.3c0-1,0.4-2,1.1-2.7
	c0.7-0.7,1.7-1.1,2.7-1.1s2,0.4,2.7,1.1c0.7,0.7,1.1,1.7,1.1,2.7v18.5c0,1-0.4,2-1.1,2.7c-0.7,0.7-1.7,1.1-2.7,1.1s-2-0.4-2.7-1.1
	c-0.7-0.7-1.1-1.7-1.1-2.7V30.3z M45.5,26.5c-1,0-2,0.4-2.7,1.1c-0.7,0.7-1.1,1.7-1.1,2.7v18.5c0,1,0.4,2,1.1,2.7
	c0.7,0.7,1.7,1.1,2.7,1.1s2-0.4,2.7-1.1c0.7-0.7,1.1-1.7,1.1-2.7V30.3c0-1-0.4-2-1.1-2.7C47.5,26.9,46.5,26.5,45.5,26.5z"/>
</svg>
